images/twit.svg

<svg width="20" height="16" viewBox="0 0 20 16" fill="none" xmlns="http://www.w3.org/2000/svg">
<path d="M6.51589 15.5085C13.5917 15.5085 17.4612 9.64639 17.4612 4.56319C17.4612 4.3967 17.4578 4.2309 17.4503 4.06601C18.2014 3.52296 18.8541 2.84529 19.3692 2.07394C18.68 2.38044 17.9381 2.58649 17.1601 2.67971C17.9543 2.20328 18.564 1.44993 18.8516 0.55188C18.1084 0.992536 17.2852 1.31268 16.4089 1.48559C15.7069 0.737866 14.7074 0.270264 13.6008 0.270264C11.4765 0.270264 9.75367 1.99299 9.75367 4.11658C9.75367 4.4186 9.7875 4.71214 9.85343 4.99376C6.65624 4.83289 3.82104 3.30223 1.92391 0.974534C1.59368 1.54293 1.4031 2.2034 1.4031 2.90812C1.4031 4.24259 2.08226 5.421 3.11493 6.11014C2.48382 6.09076 1.891 5.9175 1.37272 5.62912C1.37214 5.64528 1.37214 5.66099 1.37214 5.67819C1.37214 7.54126 2.69813 9.09681 4.45857 9.44928C4.13522 9.53723 3.79501 9.58459 3.44413 9.58459C3.19669 9.58459 2.95543 9.56028 2.72106 9.51522C3.21079 11.0437 4.63103 12.1559 6.31476 12.1871C4.99807 13.2191 3.33945 13.8338 1.5368 13.8338C1.22675 13.8338 0.92025 13.8161 0.619141 13.7805C2.32168 14.8718 4.34333 15.5086 6.516 15.5086" fill="black"/>
</svg>

<svg xmlns="http://www.w3.org/2000/svg" width="20" height="16" fill="none"><path fill="#000" d="M6.516 15.508c7.076 0 10.945-5.862 10.945-10.945 0-.166-.003-.332-.01-.497a7.828 7.828 0 0 0 1.918-1.992 7.674 7.674 0 0 1-2.209.606A3.861 3.861 0 0 0 18.852.552c-.744.44-1.567.76-2.443.934a3.847 3.847 0 0 0-6.555 3.508 10.922 10.922 0 0 1-7.93-4.02 3.838 3.838 0 0 0-.52 1.934c0 1.335.678 2.513 1.71 3.202a3.817 3.817 0 0 1-1.741-.48v.048A3.848 3.848 0 0 0 4.458 9.45a3.86 3.86 0 0 1-1.738.066 3.851 3.851 0 0 0 3.594 2.672 7.718 7.718 0 0 1-4.778 1.647c-.31 0-.617-.018-.918-.053a10.89 10.89 0 0 0 5.897 1.728"/></svg>
